public/favicon.svg

<svg width="100" height="100" viewBox="0 0 100 100" fill="none" xmlns="http://www.w3.org/2000/svg">
<g clip-path="url(#clip0_241_80)">
<rect width="100" height="100" rx="50" fill="#0E1337"/>
<path d="M46.736 63.9849C42.9564 68.5004 36.7556 70.168 31.2195 68.1591C25.6871 66.1466 22 60.888 22 55C22 48.5929 26.5582 44.4685 32.6383 38.968C37.9431 34.168 44.4071 28.3191 50 19C55.5929 28.3191 62.0569 34.168 67.3582 38.968C73.4382 44.4685 78 48.5929 78 55C78 60.888 74.3129 66.1466 68.7805 68.1591C63.2444 70.168 57.0436 68.5004 53.264 63.9849C55.0489 68.0275 57.1644 71.9173 59.5929 75.6115C60.5173 77.0125 59.5111 79 57.84 79H42.16C40.4853 79 39.4791 77.0125 40.4071 75.6115C42.8356 71.9173 44.9511 68.0275 46.736 63.9849Z" fill="#CA1D1D"/>
</g>
<defs>
<clipPath id="clip0_241_80">
<rect width="100" height="100" fill="white"/>
</clipPath>
</defs>
</svg>

<svg xmlns="http://www.w3.org/2000/svg" width="100" height="100" fill="none"><g clip-path="url(#a)"><rect width="100" height="100" fill="#0E1337" rx="50"/><path fill="#CA1D1D" d="M46.736 63.985a14.004 14.004 0 0 1-15.516 4.174A14.006 14.006 0 0 1 22 55c0-6.407 4.558-10.532 10.638-16.032C37.943 34.168 44.408 28.319 50 19c5.593 9.32 12.057 15.168 17.358 19.968C73.438 44.468 78 48.593 78 55a14.006 14.006 0 0 1-9.22 13.16 14.004 14.004 0 0 1-15.516-4.175 79.95 79.95 0 0 0 6.329 11.627c.924 1.4-.082 3.388-1.753 3.388H42.16c-1.675 0-2.68-1.987-1.753-3.388a79.95 79.95 0 0 0 6.329-11.627Z"/></g><defs><clipPath id="a"><path fill="#fff" d="M0 0h100v100H0z"/></clipPath></defs></svg>
